austria/municipalities/70823.svg

<?xml version="1.0" encoding="UTF-8"?>
<!DOCTYPE svg PUBLIC "-//W3C//DTD SVG 1.1//EN" "http://www.w3.org/Graphics/SVG/1.1/DTD/svg11.dtd">
<svg xmlns="http://www.w3.org/2000/svg" version="1.1" width="166px" height="192px" style="shape-rendering:geometricPrecision; text-rendering:geometricPrecision; image-rendering:optimizeQuality; fill-rule:evenodd; clip-rule:evenodd" xmlns:xlink="http://www.w3.org/1999/xlink">
<g><path style="opacity:1" fill="#040302" d="M -0.5,-0.5 C 54.8333,-0.5 110.167,-0.5 165.5,-0.5C 165.5,39.5 165.5,79.5 165.5,119.5C 157.038,159.629 132.705,183.629 92.5,191.5C 85.5,191.5 78.5,191.5 71.5,191.5C 30.9271,182.927 6.9271,158.261 -0.5,117.5C -0.5,78.1667 -0.5,38.8333 -0.5,-0.5 Z"/></g>
<g><path style="opacity:1" fill="#e6a51c" d="M 109.5,138.5 C 98.1099,132.968 87.1099,126.634 76.5,119.5C 73.4797,116.484 70.1464,113.817 66.5,111.5C 86.9582,87.8715 107.625,64.3715 128.5,41C 129.908,40.6848 131.241,41.0181 132.5,42C 134.667,44.8333 136.833,47.6667 139,50.5C 139.667,51.8333 140.333,51.8333 141,50.5C 141.953,48.5448 143.287,46.8782 145,45.5C 145.667,43.1667 145.667,40.8333 145,38.5C 142.819,35.6558 140.653,32.8224 138.5,30C 139.27,28.2252 140.437,26.7252 142,25.5C 142.667,24.5 142.667,23.5 142,22.5C 134.264,14.0215 125.43,12.5215 115.5,18C 112.797,21.038 109.797,23.7046 106.5,26C 71.1001,24.1803 46.4335,39.3469 32.5,71.5C 29.9051,77.2848 27.9051,83.2848 26.5,89.5C 24.2724,98.3855 23.1057,107.386 23,116.5C 27.1218,122.291 31.6218,127.791 36.5,133C 33.7504,136.864 34.0837,140.531 37.5,144C 32.6667,149.5 27.8333,155 23,160.5C 11.6201,147.711 5.28681,132.711 4,115.5C 3.50001,78.1682 3.33335,40.8348 3.5,3.5C 56.1677,3.33334 108.834,3.50001 161.5,4C 155.314,10.6851 149.314,17.5184 143.5,24.5C 145.817,27.3174 148.317,29.9841 151,32.5C 154.716,37.4601 155.383,42.7934 153,48.5C 149.398,52.7054 146.564,57.372 144.5,62.5C 150.051,89.0088 143.051,111.509 123.5,130C 119.193,133.483 114.527,136.317 109.5,138.5 Z"/></g>
<g><path style="opacity:1" fill="#020100" d="M 66.5,111.5 C 56.294,102.663 47.4607,92.6625 40,81.5C 39.3457,80.3044 38.8457,80.3044 38.5,81.5C 38.8627,82.1835 39.1961,82.8501 39.5,83.5C 38.8333,83.8333 38.1667,84.1667 37.5,84.5C 37.5,83.5 37.5,82.5 37.5,81.5C 36.5,81.5 35.5,81.5 34.5,81.5C 35.1667,80.8333 35.8333,80.1667 36.5,79.5C 37.3285,77.0665 36.8285,74.7332 35,72.5C 34.3292,71.7476 33.4959,71.4142 32.5,71.5C 46.4335,39.3469 71.1001,24.1803 106.5,26C 109.797,23.7046 112.797,21.038 115.5,18C 125.43,12.5215 134.264,14.0215 142,22.5C 142.667,23.5 142.667,24.5 142,25.5C 140.437,26.7252 139.27,28.2252 138.5,30C 140.653,32.8224 142.819,35.6558 145,38.5C 145.667,40.8333 145.667,43.1667 145,45.5C 143.287,46.8782 141.953,48.5448 141,50.5C 140.333,51.8333 139.667,51.8333 139,50.5C 136.833,47.6667 134.667,44.8333 132.5,42C 131.241,41.0181 129.908,40.6848 128.5,41C 107.625,64.3715 86.9582,87.8715 66.5,111.5 Z"/></g>
<g><path style="opacity:1" fill="#e1a11d" d="M 123.5,24.5 C 129.032,24.7655 133.699,26.9322 137.5,31C 135.126,33.039 133.126,35.3723 131.5,38C 130.5,38.6667 129.5,38.6667 128.5,38C 125.346,35.2567 122.012,32.7567 118.5,30.5C 120.19,28.4807 121.856,26.4807 123.5,24.5 Z"/></g>
<g><path style="opacity:1" fill="#dfa01e" d="M 36.5,79.5 C 35.8333,80.1667 35.1667,80.8333 34.5,81.5C 32.9826,81.5106 31.8159,82.1772 31,83.5C 31.0154,80.4302 31.6821,77.4302 33,74.5C 34.1889,76.2331 35.3556,77.8998 36.5,79.5 Z"/></g>
<g><path style="opacity:1" fill="#d4981e" d="M 34.5,81.5 C 35.5,81.5 36.5,81.5 37.5,81.5C 37.5,82.5 37.5,83.5 37.5,84.5C 37.6716,85.4916 37.3382,86.1583 36.5,86.5C 33.6769,87.9923 32.0102,90.3257 31.5,93.5C 30.5,94.8333 29.5,94.8333 28.5,93.5C 28.5,93.1667 28.5,92.8333 28.5,92.5C 28.3184,90.4086 28.6518,88.4086 29.5,86.5C 31.5212,85.1455 33.1879,83.4788 34.5,81.5 Z"/></g>
<g><path style="opacity:1" fill="#2e2413" d="M 32.5,71.5 C 33.4959,71.4142 34.3292,71.7476 35,72.5C 36.8285,74.7332 37.3285,77.0665 36.5,79.5C 35.3556,77.8998 34.1889,76.2331 33,74.5C 31.6821,77.4302 31.0154,80.4302 31,83.5C 31.8159,82.1772 32.9826,81.5106 34.5,81.5C 33.1879,83.4788 31.5212,85.1455 29.5,86.5C 28.6518,88.4086 28.3184,90.4086 28.5,92.5C 27.8333,91.5 27.1667,90.5 26.5,89.5C 27.9051,83.2848 29.9051,77.2848 32.5,71.5 Z"/></g>
<g><path style="opacity:1" fill="#df9f1d" d="M 39.5,83.5 C 40.2423,85.4258 41.2423,87.2591 42.5,89C 41.944,89.3826 41.6107,89.8826 41.5,90.5C 38.7746,91.713 36.4412,93.5464 34.5,96C 33.552,96.4828 32.552,96.6495 31.5,96.5C 31.5,95.5 31.5,94.5 31.5,93.5C 33.5475,91.4504 35.2141,89.117 36.5,86.5C 37.3382,86.1583 37.6716,85.4916 37.5,84.5C 38.1667,84.1667 38.8333,83.8333 39.5,83.5 Z"/></g>
<g><path style="opacity:1" fill="#2a2113" d="M 36.5,86.5 C 35.2141,89.117 33.5475,91.4504 31.5,93.5C 32.0102,90.3257 33.6769,87.9923 36.5,86.5 Z"/></g>
<g><path style="opacity:1" fill="#e0a11d" d="M 41.5,90.5 C 42.5862,90.62 43.2528,91.2867 43.5,92.5C 42.7485,94.9963 41.7485,97.3296 40.5,99.5C 39.1154,100.574 37.9487,101.907 37,103.5C 35.437,102.275 34.2703,100.775 33.5,99C 36.3489,96.3184 39.0156,93.485 41.5,90.5 Z"/></g>
<g><path style="opacity:1" fill="#dfa01d" d="M 48.5,99.5 C 45.5726,100.757 43.2393,102.757 41.5,105.5C 40.325,105.719 39.325,105.386 38.5,104.5C 39.4565,102.925 40.1231,101.258 40.5,99.5C 42.6243,97.9408 44.291,95.9408 45.5,93.5C 48.2264,94.9441 49.2264,96.9441 48.5,99.5 Z"/></g>
<g><path style="opacity:1" fill="#dc9e1e" d="M 48.5,99.5 C 49.5,99.5 50.5,99.5 51.5,99.5C 51.5,100.5 51.5,101.5 51.5,102.5C 50.6618,102.842 50.3284,103.508 50.5,104.5C 48.7376,105.262 47.7376,106.596 47.5,108.5C 46.2876,109.23 45.2876,110.23 44.5,111.5C 42.6841,110.185 41.0175,108.685 39.5,107C 40.4158,106.722 41.0825,106.222 41.5,105.5C 44.4274,104.243 46.7607,102.243 48.5,99.5 Z"/></g>
<g><path style="opacity:1" fill="#282012" d="M 48.5,99.5 C 46.7607,102.243 44.4274,104.243 41.5,105.5C 43.2393,102.757 45.5726,100.757 48.5,99.5 Z"/></g>
<g><path style="opacity:1" fill="#d3971e" d="M 49.5,113.5 C 48.5,113.5 47.5,113.5 46.5,113.5C 46.6287,111.784 46.962,110.117 47.5,108.5C 49.2624,107.738 50.2624,106.404 50.5,104.5C 50.3284,103.508 50.6618,102.842 51.5,102.5C 52.1174,102.389 52.6174,102.056 53,101.5C 54.5,103 56,104.5 57.5,106C 54.3343,108 51.6676,110.5 49.5,113.5 Z"/></g>
<g><path style="opacity:1" fill="#271f11" d="M 50.5,104.5 C 50.2624,106.404 49.2624,107.738 47.5,108.5C 47.7376,106.596 48.7376,105.262 50.5,104.5 Z"/></g>
<g><path style="opacity:1" fill="#413117" d="M 41.5,90.5 C 39.0156,93.485 36.3489,96.3184 33.5,99C 34.2703,100.775 35.437,102.275 37,103.5C 37.9487,101.907 39.1154,100.574 40.5,99.5C 40.1231,101.258 39.4565,102.925 38.5,104.5C 39.325,105.386 40.325,105.719 41.5,105.5C 41.0825,106.222 40.4158,106.722 39.5,107C 41.0175,108.685 42.6841,110.185 44.5,111.5C 45.2876,110.23 46.2876,109.23 47.5,108.5C 46.962,110.117 46.6287,111.784 46.5,113.5C 47.5,113.5 48.5,113.5 49.5,113.5C 48.5114,116.249 49.5114,118.249 52.5,119.5C 52.1667,120.167 51.8333,120.833 51.5,121.5C 42.0948,113.761 34.0948,104.761 27.5,94.5C 27.6236,93.8933 27.9569,93.56 28.5,93.5C 29.5,94.8333 30.5,94.8333 31.5,93.5C 31.5,94.5 31.5,95.5 31.5,96.5C 32.552,96.6495 33.552,96.4828 34.5,96C 36.4412,93.5464 38.7746,91.713 41.5,90.5 Z"/></g>
<g><path style="opacity:1" fill="#e1a11d" d="M 56.5,114.5 C 54.457,115.579 53.1237,117.246 52.5,119.5C 49.5114,118.249 48.5114,116.249 49.5,113.5C 52.4464,111.73 55.2797,109.73 58,107.5C 58.5,107.833 59,108.167 59.5,108.5C 58.4412,110.534 57.4412,112.534 56.5,114.5 Z"/></g>
<g><path style="opacity:1" fill="#db9d1e" d="M 66.5,113.5 C 62.5914,116.039 58.7581,118.706 55,121.5C 54.5,121.167 54,120.833 53.5,120.5C 54.5588,118.466 55.5588,116.466 56.5,114.5C 58.4509,113.284 59.9509,111.618 61,109.5C 62.4998,111.469 64.3331,112.802 66.5,113.5 Z"/></g>
<g><path style="opacity:1" fill="#3c2e16" d="M 66.5,111.5 C 70.1464,113.817 73.4797,116.484 76.5,119.5C 76.1667,119.5 75.8333,119.5 75.5,119.5C 74.8333,119.5 74.1667,119.5 73.5,119.5C 71.5633,118.41 69.73,117.076 68,115.5C 67.7104,117.044 67.0437,118.377 66,119.5C 66.1349,117.575 66.3016,115.575 66.5,113.5C 64.3331,112.802 62.4998,111.469 61,109.5C 59.9509,111.618 58.4509,113.284 56.5,114.5C 57.4412,112.534 58.4412,110.534 59.5,108.5C 59,108.167 58.5,107.833 58,107.5C 55.2797,109.73 52.4464,111.73 49.5,113.5C 51.6676,110.5 54.3343,108 57.5,106C 56,104.5 54.5,103 53,101.5C 52.6174,102.056 52.1174,102.389 51.5,102.5C 51.5,101.5 51.5,100.5 51.5,99.5C 50.5,99.5 49.5,99.5 48.5,99.5C 49.2264,96.9441 48.2264,94.9441 45.5,93.5C 44.291,95.9408 42.6243,97.9408 40.5,99.5C 41.7485,97.3296 42.7485,94.9963 43.5,92.5C 43.2528,91.2867 42.5862,90.62 41.5,90.5C 41.6107,89.8826 41.944,89.3826 42.5,89C 41.2423,87.2591 40.2423,85.4258 39.5,83.5C 39.1961,82.8501 38.8627,82.1835 38.5,81.5C 38.8457,80.3044 39.3457,80.3044 40,81.5C 47.4607,92.6625 56.294,102.663 66.5,111.5 Z"/></g>
<g><path style="opacity:1" fill="#fdfdfd" d="M -0.5,117.5 C 6.9271,158.261 30.9271,182.927 71.5,191.5C 47.5,191.5 23.5,191.5 -0.5,191.5C -0.5,166.833 -0.5,142.167 -0.5,117.5 Z"/></g>
<g><path style="opacity:1" fill="#fdfdfd" d="M 165.5,119.5 C 165.5,143.5 165.5,167.5 165.5,191.5C 141.167,191.5 116.833,191.5 92.5,191.5C 132.705,183.629 157.038,159.629 165.5,119.5 Z"/></g>
<g><path style="opacity:1" fill="#986e22" d="M 56.5,124.5 C 55.209,124.737 54.209,124.404 53.5,123.5C 54.4959,123.586 55.3292,123.252 56,122.5C 56.4643,123.094 56.631,123.761 56.5,124.5 Z"/></g>
<g><path style="opacity:1" fill="#e3a21c" d="M 56.5,127.5 C 65.6905,135.353 75.6905,142.02 86.5,147.5C 87.5837,147.315 88.5837,146.982 89.5,146.5C 91.1172,145.962 92.7839,145.629 94.5,145.5C 85.2035,150.538 75.2035,153.038 64.5,153C 56.3938,149.285 49.3938,144.119 43.5,137.5C 46.441,133.056 49.941,129.056 54,125.5C 54.7083,126.381 55.5416,127.047 56.5,127.5 Z"/></g>
<g><path style="opacity:1" fill="#b78422" d="M 62.5,128.5 C 64.6977,128.409 65.0311,129.075 63.5,130.5C 61.8946,129.994 61.5613,129.327 62.5,128.5 Z"/></g>
<g><path style="opacity:1" fill="#171209" d="M 66.5,113.5 C 66.3016,115.575 66.1349,117.575 66,119.5C 67.0437,118.377 67.7104,117.044 68,115.5C 69.73,117.076 71.5633,118.41 73.5,119.5C 70.9596,120.854 69.4596,122.854 69,125.5C 70.3894,123.773 72.0561,122.439 74,121.5C 77.384,123.611 77.884,122.945 75.5,119.5C 75.8333,119.5 76.1667,119.5 76.5,119.5C 87.1099,126.634 98.1099,132.968 109.5,138.5C 106.558,139.304 103.891,140.638 101.5,142.5C 101.158,143.338 100.492,143.672 99.5,143.5C 98.7611,143.631 98.0944,143.464 97.5,143C 98.4506,142.282 98.6172,141.449 98,140.5C 96.1978,141.789 95.0312,143.456 94.5,145.5C 92.7839,145.629 91.1172,145.962 89.5,146.5C 89.8146,144.774 89.9813,143.107 90,141.5C 88.8118,142.563 88.3118,143.897 88.5,145.5C 85.6627,145.316 83.6627,143.982 82.5,141.5C 79.5944,141.043 76.9278,140.043 74.5,138.5C 72.8064,136.132 71.1397,134.465 69.5,133.5C 67.5,132.5 65.5,131.5 63.5,130.5C 65.0311,129.075 64.6977,128.409 62.5,128.5C 60.7359,126.879 58.7359,125.546 56.5,124.5C 56.631,123.761 56.4643,123.094 56,122.5C 55.3292,123.252 54.4959,123.586 53.5,123.5C 52.5,123.167 51.8333,122.5 51.5,121.5C 51.8333,120.833 52.1667,120.167 52.5,119.5C 53.1237,117.246 54.457,115.579 56.5,114.5C 55.5588,116.466 54.5588,118.466 53.5,120.5C 54,120.833 54.5,121.167 55,121.5C 58.7581,118.706 62.5914,116.039 66.5,113.5 Z"/></g>
<g><path style="opacity:1" fill="#976f23" d="M 82.5,125.5 C 83.6828,126.504 85.0161,127.338 86.5,128C 84.0551,128.91 82.7218,128.076 82.5,125.5 Z"/></g>
<g><path style="opacity:1" fill="#6c511f" d="M 73.5,119.5 C 74.1667,119.5 74.8333,119.5 75.5,119.5C 77.884,122.945 77.384,123.611 74,121.5C 72.0561,122.439 70.3894,123.773 69,125.5C 69.4596,122.854 70.9596,120.854 73.5,119.5 Z"/></g>
<g><path style="opacity:1" fill="#292011" d="M 56.5,124.5 C 58.7359,125.546 60.7359,126.879 62.5,128.5C 61.5613,129.327 61.8946,129.994 63.5,130.5C 65.5,131.5 67.5,132.5 69.5,133.5C 69.3893,134.117 69.056,134.617 68.5,135C 70.4048,136.421 72.4048,137.588 74.5,138.5C 76.9278,140.043 79.5944,141.043 82.5,141.5C 83.6627,143.982 85.6627,145.316 88.5,145.5C 88.3118,143.897 88.8118,142.563 90,141.5C 89.9813,143.107 89.8146,144.774 89.5,146.5C 88.5837,146.982 87.5837,147.315 86.5,147.5C 75.6905,142.02 65.6905,135.353 56.5,127.5C 57.8333,126.5 57.8333,125.5 56.5,124.5 Z"/></g>
<g><path style="opacity:1" fill="#ae7e23" d="M 91.5,131.5 C 93.7029,132.052 94.5362,133.385 94,135.5C 92.9152,134.264 92.0819,132.931 91.5,131.5 Z"/></g>
<g><path style="opacity:1" fill="#866221" d="M 74.5,138.5 C 72.4048,137.588 70.4048,136.421 68.5,135C 69.056,134.617 69.3893,134.117 69.5,133.5C 71.1397,134.465 72.8064,136.132 74.5,138.5 Z"/></g>
<g><path style="opacity:1" fill="#664c1e" d="M 82.5,141.5 C 83.4577,140.038 84.6244,138.705 86,137.5C 86.1681,139.841 85.0014,141.174 82.5,141.5 Z"/></g>
<g><path style="opacity:1" fill="#b48222" d="M 101.5,136.5 C 102.922,136.709 104.255,137.209 105.5,138C 103.537,138.844 102.204,138.344 101.5,136.5 Z"/></g>
<g><path style="opacity:1" fill="#d4981f" d="M 40.5,139.5 C 42.9324,140.75 45.2657,142.25 47.5,144C 44.2625,147.415 41.2625,147.248 38.5,143.5C 39.1799,142.14 39.8466,140.807 40.5,139.5 Z"/></g>
<g><path style="opacity:1" fill="#815f1f" d="M 99.5,143.5 C 98.2196,144.931 96.5529,145.598 94.5,145.5C 95.0312,143.456 96.1978,141.789 98,140.5C 98.6172,141.449 98.4506,142.282 97.5,143C 98.0944,143.464 98.7611,143.631 99.5,143.5 Z"/></g>
<g><path style="opacity:1" fill="#b28121" d="M 109.5,138.5 C 107.421,140.873 104.754,142.206 101.5,142.5C 103.891,140.638 106.558,139.304 109.5,138.5 Z"/></g>
</svg>

<svg xmlns="http://www.w3.org/2000/svg" width="166" height="192" style="shape-rendering:geometricPrecision;text-rendering:geometricPrecision;image-rendering:optimizeQuality;fill-rule:evenodd;clip-rule:evenodd"><path style="opacity:1" fill="#040302" d="M-.5-.5h166v120c-8.462 40.129-32.795 64.129-73 72h-21c-40.573-8.573-64.573-33.239-72-74V-.5z"/><path style="opacity:1" fill="#e6a51c" d="M109.5 138.5a272.23 272.23 0 0 1-33-19 58.52 58.52 0 0 0-10-8 6086.792 6086.792 0 0 1 62-70.5c1.408-.315 2.741.018 4 1l6.5 8.5c.667 1.333 1.333 1.333 2 0a14.506 14.506 0 0 1 4-5 12.494 12.494 0 0 0 0-7 4240.903 4240.903 0 0 1-6.5-8.5c.77-1.775 1.937-3.275 3.5-4.5.667-1 .667-2 0-3-7.736-8.479-16.57-9.979-26.5-4.5a51.073 51.073 0 0 1-9 8c-35.4-1.82-60.066 13.347-74 45.5a95.11 95.11 0 0 0-6 18 116.202 116.202 0 0 0-3.5 27A158.99 158.99 0 0 0 36.5 133c-2.75 3.864-2.416 7.531 1 11L23 160.5c-11.38-12.789-17.713-27.789-19-45-.5-37.332-.667-74.665-.5-112 52.668-.167 105.334 0 158 .5a522.186 522.186 0 0 0-18 20.5 84.792 84.792 0 0 0 7.5 8c3.716 4.96 4.383 10.293 2 16a50.193 50.193 0 0 0-8.5 14c5.551 26.509-1.449 49.009-21 67.5a60.496 60.496 0 0 1-14 8.5z"/><path style="opacity:1" fill="#020100" d="M66.5 111.5a149.15 149.15 0 0 1-26.5-30c-.654-1.196-1.154-1.196-1.5 0 .363.683.696 1.35 1 2l-2 1v-3h-3l2-2c.828-2.433.328-4.767-1.5-7-.67-.752-1.504-1.086-2.5-1 13.934-32.153 38.6-47.32 74-45.5a51.073 51.073 0 0 0 9-8c9.93-5.479 18.764-3.979 26.5 4.5.667 1 .667 2 0 3-1.563 1.225-2.73 2.725-3.5 4.5 2.153 2.822 4.319 5.656 6.5 8.5a12.494 12.494 0 0 1 0 7 14.506 14.506 0 0 0-4 5c-.667 1.333-1.333 1.333-2 0l-6.5-8.5c-1.259-.982-2.592-1.315-4-1a6086.792 6086.792 0 0 0-62 70.5z"/><path style="opacity:1" fill="#e1a11d" d="M123.5 24.5c5.532.265 10.199 2.432 14 6.5a29.97 29.97 0 0 0-6 7c-1 .667-2 .667-3 0a86.333 86.333 0 0 0-10-7.5c1.69-2.02 3.356-4.02 5-6z"/><path style="opacity:1" fill="#dfa01e" d="m36.5 79.5-2 2c-1.517.01-2.684.677-3.5 2 .015-3.07.682-6.07 2-9 1.189 1.733 2.356 3.4 3.5 5z"/><path style="opacity:1" fill="#d4981e" d="M34.5 81.5h3v3c.172.992-.162 1.658-1 2-2.823 1.492-4.49 3.826-5 7-1 1.333-2 1.333-3 0v-1a11.989 11.989 0 0 1 1-6 17.853 17.853 0 0 0 5-5z"/><path style="opacity:1" fill="#2e2413" d="M32.5 71.5c.996-.086 1.83.248 2.5 1 1.828 2.233 2.328 4.567 1.5 7a312.234 312.234 0 0 1-3.5-5c-1.318 2.93-1.985 5.93-2 9 .816-1.323 1.983-1.99 3.5-2a17.853 17.853 0 0 1-5 5 11.989 11.989 0 0 0-1 6l-2-3a95.11 95.11 0 0 1 6-18z"/><path style="opacity:1" fill="#df9f1d" d="M39.5 83.5a24.282 24.282 0 0 0 3 5.5c-.556.383-.89.883-1 1.5-2.725 1.213-5.059 3.046-7 5.5a4.932 4.932 0 0 1-3 .5v-3a26.156 26.156 0 0 0 5-7c.838-.342 1.172-1.008 1-2l2-1z"/><path style="opacity:1" fill="#2a2113" d="M36.5 86.5a26.156 26.156 0 0 1-5 7c.51-3.174 2.177-5.508 5-7z"/><path style="opacity:1" fill="#e0a11d" d="M41.5 90.5c1.086.12 1.753.787 2 2a33.144 33.144 0 0 1-3 7c-1.385 1.074-2.551 2.407-3.5 4-1.563-1.225-2.73-2.725-3.5-4.5a96.032 96.032 0 0 0 8-8.5z"/><path style="opacity:1" fill="#dfa01d" d="M48.5 99.5c-2.927 1.257-5.26 3.257-7 6-1.175.219-2.175-.114-3-1a16.062 16.062 0 0 0 2-5c2.124-1.56 3.791-3.56 5-6 2.726 1.444 3.726 3.444 3 6z"/><path style="opacity:1" fill="#dc9e1e" d="M48.5 99.5h3v3c-.838.342-1.172 1.008-1 2-1.762.762-2.762 2.096-3 4-1.212.73-2.212 1.73-3 3a31.867 31.867 0 0 1-5-4.5c.916-.278 1.583-.778 2-1.5 2.927-1.257 5.26-3.257 7-6z"/><path style="opacity:1" fill="#282012" d="M48.5 99.5c-1.74 2.743-4.073 4.743-7 6 1.74-2.743 4.073-4.743 7-6z"/><path style="opacity:1" fill="#d3971e" d="M49.5 113.5h-3a20.676 20.676 0 0 1 1-5c1.762-.762 2.762-2.096 3-4-.172-.992.162-1.658 1-2 .617-.111 1.117-.444 1.5-1l4.5 4.5c-3.166 2-5.832 4.5-8 7.5z"/><path style="opacity:1" fill="#271f11" d="M50.5 104.5c-.238 1.904-1.238 3.238-3 4 .238-1.904 1.238-3.238 3-4z"/><path style="opacity:1" fill="#413117" d="M41.5 90.5a96.032 96.032 0 0 1-8 8.5c.77 1.775 1.937 3.275 3.5 4.5.949-1.593 2.115-2.926 3.5-4a16.062 16.062 0 0 1-2 5c.825.886 1.825 1.219 3 1-.417.722-1.084 1.222-2 1.5a31.867 31.867 0 0 0 5 4.5c.788-1.27 1.788-2.27 3-3a20.676 20.676 0 0 0-1 5h3c-.989 2.749.011 4.749 3 6l-1 2a115.908 115.908 0 0 1-24-27c.124-.607.457-.94 1-1 1 1.333 2 1.333 3 0v3a4.932 4.932 0 0 0 3-.5c1.941-2.454 4.275-4.287 7-5.5z"/><path style="opacity:1" fill="#e1a11d" d="M56.5 114.5c-2.043 1.079-3.376 2.746-4 5-2.989-1.251-3.989-3.251-3-6a71.376 71.376 0 0 0 8.5-6l1.5 1a200.586 200.586 0 0 0-3 6z"/><path style="opacity:1" fill="#db9d1e" d="M66.5 113.5a221.6 221.6 0 0 0-11.5 8l-1.5-1a200.586 200.586 0 0 0 3-6c1.95-1.216 3.45-2.882 4.5-5 1.5 1.969 3.333 3.302 5.5 4z"/><path style="opacity:1" fill="#3c2e16" d="M66.5 111.5a58.52 58.52 0 0 1 10 8h-3a30.049 30.049 0 0 1-5.5-4c-.29 1.544-.956 2.877-2 4 .135-1.925.302-3.925.5-6-2.167-.698-4-2.031-5.5-4-1.05 2.118-2.55 3.784-4.5 5a200.586 200.586 0 0 1 3-6l-1.5-1a71.376 71.376 0 0 1-8.5 6c2.168-3 4.834-5.5 8-7.5l-4.5-4.5c-.383.556-.883.889-1.5 1v-3h-3c.726-2.556-.274-4.556-3-6-1.209 2.44-2.876 4.44-5 6a33.144 33.144 0 0 0 3-7c-.247-1.213-.914-1.88-2-2 .11-.617.444-1.117 1-1.5a24.282 24.282 0 0 1-3-5.5 44.358 44.358 0 0 0-1-2c.346-1.196.846-1.196 1.5 0a149.15 149.15 0 0 0 26.5 30z"/><path style="opacity:1" fill="#fdfdfd" d="M-.5 117.5c7.427 40.761 31.427 65.427 72 74h-72v-74zM165.5 119.5v72h-73c40.205-7.871 64.538-31.871 73-72z"/><path style="opacity:1" fill="#986e22" d="M56.5 124.5c-1.291.237-2.291-.096-3-1 .996.086 1.83-.248 2.5-1 .464.594.631 1.261.5 2z"/><path style="opacity:1" fill="#e3a21c" d="M56.5 127.5a151.394 151.394 0 0 0 30 20 10.02 10.02 0 0 0 3-1 20.691 20.691 0 0 1 5-1c-9.296 5.038-19.296 7.538-30 7.5-8.106-3.715-15.106-8.881-21-15.5a59.693 59.693 0 0 1 10.5-12c.708.881 1.542 1.547 2.5 2z"/><path style="opacity:1" fill="#b78422" d="M62.5 128.5c2.198-.091 2.531.575 1 2-1.605-.506-1.939-1.173-1-2z"/><path style="opacity:1" fill="#171209" d="M66.5 113.5a237.67 237.67 0 0 0-.5 6c1.044-1.123 1.71-2.456 2-4a30.049 30.049 0 0 0 5.5 4c-2.54 1.354-4.04 3.354-4.5 6 1.39-1.727 3.056-3.061 5-4 3.384 2.111 3.884 1.445 1.5-2h1a272.23 272.23 0 0 0 33 19 22.581 22.581 0 0 0-8 4c-.342.838-1.008 1.172-2 1a2.429 2.429 0 0 1-2-.5c.95-.718 1.117-1.551.5-2.5-1.802 1.289-2.969 2.956-3.5 5a20.691 20.691 0 0 0-5 1c.315-1.726.481-3.393.5-5-1.188 1.063-1.688 2.397-1.5 4-2.837-.184-4.837-1.518-6-4-2.906-.457-5.572-1.457-8-3-1.694-2.368-3.36-4.035-5-5l-6-3c1.531-1.425 1.198-2.091-1-2a23.557 23.557 0 0 0-6-4 2.427 2.427 0 0 0-.5-2c-.67.752-1.504 1.086-2.5 1-1-.333-1.667-1-2-2l1-2c.624-2.254 1.957-3.921 4-5a200.586 200.586 0 0 1-3 6l1.5 1a221.6 221.6 0 0 1 11.5-8z"/><path style="opacity:1" fill="#976f23" d="M82.5 125.5a16.578 16.578 0 0 0 4 2.5c-2.445.91-3.778.076-4-2.5z"/><path style="opacity:1" fill="#6c511f" d="M73.5 119.5h2c2.384 3.445 1.884 4.111-1.5 2-1.944.939-3.61 2.273-5 4 .46-2.646 1.96-4.646 4.5-6z"/><path style="opacity:1" fill="#292011" d="M56.5 124.5a23.557 23.557 0 0 1 6 4c-.939.827-.605 1.494 1 2l6 3c-.11.617-.444 1.117-1 1.5a30.126 30.126 0 0 0 6 3.5c2.428 1.543 5.094 2.543 8 3 1.163 2.482 3.163 3.816 6 4-.188-1.603.312-2.937 1.5-4a29.822 29.822 0 0 1-.5 5 10.02 10.02 0 0 1-3 1 151.394 151.394 0 0 1-30-20c1.333-1 1.333-2 0-3z"/><path style="opacity:1" fill="#ae7e23" d="M91.5 131.5c2.203.552 3.036 1.885 2.5 4-1.085-1.236-1.918-2.569-2.5-4z"/><path style="opacity:1" fill="#866221" d="M74.5 138.5a30.126 30.126 0 0 1-6-3.5c.556-.383.89-.883 1-1.5 1.64.965 3.306 2.632 5 5z"/><path style="opacity:1" fill="#664c1e" d="M82.5 141.5a19.555 19.555 0 0 1 3.5-4c.168 2.341-.999 3.674-3.5 4z"/><path style="opacity:1" fill="#b48222" d="M101.5 136.5c1.422.209 2.755.709 4 1.5-1.963.844-3.296.344-4-1.5z"/><path style="opacity:1" fill="#d4981f" d="M40.5 139.5a43.837 43.837 0 0 1 7 4.5c-3.237 3.415-6.237 3.248-9-.5l2-4z"/><path style="opacity:1" fill="#815f1f" d="M99.5 143.5c-1.28 1.431-2.947 2.098-5 2 .531-2.044 1.698-3.711 3.5-5 .617.949.45 1.782-.5 2.5a2.429 2.429 0 0 0 2 .5z"/><path style="opacity:1" fill="#b28121" d="M109.5 138.5c-2.079 2.373-4.746 3.706-8 4a22.581 22.581 0 0 1 8-4z"/></svg>
